X: 1529
T: the Lisburn Lasses
T: na cailini.de ua lios-boireann.
R: reel
B: O'Neill's 1850 "Music of Ireland" #1529
O: J.O'Neill
Z: transcribed by John B. Walsh, walsh@math.ubc.ca 8/23/96
M: C|
L: 1/8
K: D
|: F2(EF) D2(DE) | FDED FDED | F2(EF) D2(DE) | FABc [1 dBAG :|2 d2(de) |] f>d ((3{e}dcd) f>d ((3{e}dcd) | ((3fed) fga2 ((3bag) |
| ((3fed) ec dcAB | cdcA Ggfg || f>d ((3{e}dcd) f>d ((3{e}dcd) | Tfedc d2(de) | ((3fed) ec dcAB | TcAGF GBAG |]
